X: 23185
T: Le Reve De Loulou
R: jig
M: 6/8
K: Fmajor
ABc AFc|cBc AFF|GBA GDD|GAB GFE|
ABc AFc|cBc AFF|GBA GEF|1 GAB F3:|2 GAB FAB||
|:c3 cBA|BAG AGF|GBA GEF|GAB GFG|
c3 cBA|BAG AGF|GBA GEF|1 GAB FAB:|2 GAB F3||

